korla/devices/symbolic/input-dialpad-symbolic.svg

<svg style="clip-rule:evenodd;fill-rule:evenodd;stroke-linejoin:round;stroke-miterlimit:2" version="1.1" viewBox="0 0 16 16" xmlns="http://www.w3.org/2000/svg">
 <path d="m7.5 13h2c0.277 0 0.5 0.223 0.5 0.5v2c0 0.277-0.223 0.5-0.5 0.5h-2c-0.277 0-0.5-0.223-0.5-0.5v-2c0-0.277 0.223-0.5 0.5-0.5zm0.015 0.515v1.97h1.97v-1.97h-1.97z" style="fill:rgb(223,223,223)"/>
 <path d="m11.5 9h2c0.277 0 0.5 0.223 0.5 0.5v2c0 0.277-0.223 0.5-0.5 0.5h-2c-0.277 0-0.5-0.223-0.5-0.5v-2c0-0.277 0.223-0.5 0.5-0.5z" style="fill:rgb(223,223,223)"/>
 <path d="m7.5 9h2c0.277 0 0.5 0.223 0.5 0.5v2c0 0.277-0.223 0.5-0.5 0.5h-2c-0.277 0-0.5-0.223-0.5-0.5v-2c0-0.277 0.223-0.5 0.5-0.5z" style="fill:rgb(223,223,223)"/>
 <path d="m3.5 9h2c0.277 0 0.5 0.223 0.5 0.5v2c0 0.277-0.223 0.5-0.5 0.5h-2c-0.277 0-0.5-0.223-0.5-0.5v-2c0-0.277 0.223-0.5 0.5-0.5z" style="fill:rgb(223,223,223)"/>
 <path d="M3.5,5L5.5,5C5.777,5 6,5.223 6,5.5L6,7.5C6,7.777 5.777,8 5.5,8L3.5,8C3.223,8 3,7.777 3,7.5L3,5.5C3,5.223 3.223,5 3.5,5Z" style="fill:rgb(223,223,223)"/>
 <path d="m7.5 5h2c0.277 0 0.5 0.223 0.5 0.5v2c0 0.277-0.223 0.5-0.5 0.5h-2c-0.277 0-0.5-0.223-0.5-0.5v-2c0-0.277 0.223-0.5 0.5-0.5z" style="fill:rgb(223,223,223)"/>
 <g transform="translate(0 8)">
  <path d="m7.5 5h2c0.277 0 0.5 0.223 0.5 0.5v2c0 0.277-0.223 0.5-0.5 0.5h-2c-0.277 0-0.5-0.223-0.5-0.5v-2c0-0.277 0.223-0.5 0.5-0.5z" style="fill-opacity:.5;fill:rgb(223,223,223)"/>
 </g>
 <path d="m11.5 5h2c0.277 0 0.5 0.223 0.5 0.5v2c0 0.277-0.223 0.5-0.5 0.5h-2c-0.277 0-0.5-0.223-0.5-0.5v-2c0-0.277 0.223-0.5 0.5-0.5z" style="fill:rgb(223,223,223)"/>
 <path d="m11.5 1h2c0.277 0 0.5 0.223 0.5 0.5v2c0 0.277-0.223 0.5-0.5 0.5h-2c-0.277 0-0.5-0.223-0.5-0.5v-2c0-0.277 0.223-0.5 0.5-0.5z" style="fill:rgb(223,223,223)"/>
 <path d="m7.5 1h2c0.277 0 0.5 0.223 0.5 0.5v2c0 0.277-0.223 0.5-0.5 0.5h-2c-0.277 0-0.5-0.223-0.5-0.5v-2c0-0.277 0.223-0.5 0.5-0.5z" style="fill:rgb(223,223,223)"/>
 <path d="M3.5,1L5.5,1C5.777,1 6,1.223 6,1.5L6,3.5C6,3.777 5.777,4 5.5,4L3.5,4C3.223,4 3,3.777 3,3.5L3,1.5C3,1.223 3.223,1 3.5,1Z" style="fill:rgb(223,223,223)"/>
</svg>

<svg xmlns="http://www.w3.org/2000/svg" width="16" height="16" version="1.1">
 <path style="fill:#dfdfdf" d="M 7.5,13 H 9.5 C 9.777,13 10,13.223 10,13.5 V 15.5 C 10,15.777 9.777,16 9.5,16 H 7.5 C 7.223,16 7,15.777 7,15.5 V 13.5 C 7,13.223 7.223,13 7.5,13 Z M 11.5,9 H 13.5 C 13.777,9 14,9.223 14,9.5 V 11.5 C 14,11.777 13.777,12 13.5,12 H 11.5 C 11.223,12 11,11.777 11,11.5 V 9.5 C 11,9.223 11.223,9 11.5,9 Z M 7.5,9 H 9.5 C 9.777,9 10,9.223 10,9.5 V 11.5 C 10,11.777 9.777,12 9.5,12 H 7.5 C 7.223,12 7,11.777 7,11.5 V 9.5 C 7,9.223 7.223,9 7.5,9 Z M 3.5,9 H 5.5 C 5.777,9 6,9.223 6,9.5 V 11.5 C 6,11.777 5.777,12 5.5,12 H 3.5 C 3.223,12 3,11.777 3,11.5 V 9.5 C 3,9.223 3.223,9 3.5,9 Z M 3.5,5 H 5.5 C 5.777,5 6,5.223 6,5.5 V 7.5 C 6,7.777 5.777,8 5.5,8 H 3.5 C 3.223,8 3,7.777 3,7.5 V 5.5 C 3,5.223 3.223,5 3.5,5 Z M 7.5,5 H 9.5 C 9.777,5 10,5.223 10,5.5 V 7.5 C 10,7.777 9.777,8 9.5,8 H 7.5 C 7.223,8 7,7.777 7,7.5 V 5.5 C 7,5.223 7.223,5 7.5,5 Z M 11.5,5 H 13.5 C 13.777,5 14,5.223 14,5.5 V 7.5 C 14,7.777 13.777,8 13.5,8 H 11.5 C 11.223,8 11,7.777 11,7.5 V 5.5 C 11,5.223 11.223,5 11.5,5 Z M 11.5,1 H 13.5 C 13.777,1 14,1.223 14,1.5 V 3.5 C 14,3.777 13.777,4 13.5,4 H 11.5 C 11.223,4 11,3.777 11,3.5 V 1.5 C 11,1.223 11.223,1 11.5,1 Z M 7.5,1 H 9.5 C 9.777,1 10,1.223 10,1.5 V 3.5 C 10,3.777 9.777,4 9.5,4 H 7.5 C 7.223,4 7,3.777 7,3.5 V 1.5 C 7,1.223 7.223,1 7.5,1 Z M 3.5,1 H 5.5 C 5.777,1 6,1.223 6,1.5 V 3.5 C 6,3.777 5.777,4 5.5,4 H 3.5 C 3.223,4 3,3.777 3,3.5 V 1.5 C 3,1.223 3.223,1 3.5,1 Z"/>
</svg>
